svgs/duotone/square-terminal.svg

<svg xmlns="http://www.w3.org/2000/svg" viewBox="0 0 448 512"><!--! Font Awesome Pro 6.3.0 by @fontawesome - https://fontawesome.com License - https://fontawesome.com/license (Commercial License) Copyright 2023 Fonticons, Inc. --><defs><style>.fa-secondary{opacity:.4}</style></defs><path class="fa-primary" d="M71.78 185.7C62.01 176.7 61.35 161.6 70.31 151.8C79.26 142 94.45 141.4 104.2 150.3L200.2 238.3C205.2 242.9 208 249.3 208 256C208 262.7 205.2 269.1 200.2 273.7L104.2 361.7C94.45 370.6 79.27 369.1 70.31 360.2C61.35 350.4 62.01 335.3 71.78 326.3L148.5 256L71.78 185.7zM360 336C373.3 336 384 346.7 384 360C384 373.3 373.3 384 360 384H216C202.7 384 192 373.3 192 360C192 346.7 202.7 336 216 336H360z"/><path class="fa-secondary" d="M0 96C0 60.65 28.65 32 64 32H384C419.3 32 448 60.65 448 96V416C448 451.3 419.3 480 384 480H64C28.65 480 0 451.3 0 416V96zM70.31 151.8C61.35 161.6 62.01 176.7 71.78 185.7L148.5 256L71.78 326.3C62.01 335.3 61.35 350.4 70.31 360.2C79.26 369.1 94.45 370.6 104.2 361.7L200.2 273.7C205.2 269.1 208 262.7 208 255.1C208 249.3 205.2 242.9 200.2 238.3L104.2 150.3C94.45 141.4 79.26 142 70.31 151.8V151.8zM216 336C202.7 336 192 346.7 192 360C192 373.3 202.7 384 216 384H360C373.3 384 384 373.3 384 360C384 346.7 373.3 336 360 336H216z"/></svg>

<svg xmlns="http://www.w3.org/2000/svg" viewBox="0 0 448 512"><!--! Font Awesome Pro 6.4.0 by @fontawesome - https://fontawesome.com License - https://fontawesome.com/license (Commercial License) Copyright 2023 Fonticons, Inc. --><defs><style>.fa-secondary{opacity:.4}</style></defs><path class="fa-primary" d="M71.8 185.7c-9.8-9-10.4-24.1-1.5-33.9s24.1-10.4 33.9-1.5l96 88c5 4.5 7.8 11 7.8 17.7s-2.8 13.1-7.8 17.7l-96 88c-9.8 9-25 8.3-33.9-1.5s-8.3-25 1.5-33.9L148.5 256 71.8 185.7zM216 336H360c13.3 0 24 10.7 24 24s-10.7 24-24 24H216c-13.3 0-24-10.7-24-24s10.7-24 24-24z"/><path class="fa-secondary" d="M0 96C0 60.7 28.7 32 64 32H384c35.3 0 64 28.7 64 64V416c0 35.3-28.7 64-64 64H64c-35.3 0-64-28.7-64-64V96zm70.3 55.8c-9 9.8-8.3 25 1.5 33.9L148.5 256 71.8 326.3c-9.8 9-10.4 24.1-1.5 33.9s24.1 10.4 33.9 1.5l96-88c5-4.5 7.8-11 7.8-17.7s-2.8-13.1-7.8-17.7l-96-88c-9.8-9-25-8.3-33.9 1.5zM216 336c-13.3 0-24 10.7-24 24s10.7 24 24 24H360c13.3 0 24-10.7 24-24s-10.7-24-24-24H216z"/></svg>
